docs/img/svg/s-pint.svg

<svg width="22" height="28" viewBox="0 0 22 28" fill="none" xmlns="http://www.w3.org/2000/svg">
<path d="M11.1839 0C3.74878 0 0 5.33029 0 9.77555C0 12.4669 1.01892 14.8609 3.20403 15.7535C3.56273 15.8999 3.88406 15.7588 3.98838 15.3622C4.06034 15.0874 4.23132 14.3949 4.30747 14.1062C4.41234 13.7137 4.37134 13.5762 4.08237 13.2342C3.45228 12.4909 3.04951 11.5286 3.04951 10.1655C3.04951 6.21087 6.00836 2.67073 10.7546 2.67073C14.9563 2.67073 17.2653 5.23853 17.2653 8.66765C17.2653 13.1796 15.2685 16.9875 12.3043 16.9875C10.667 16.9875 9.44195 15.6336 9.83468 13.9731C10.305 11.9908 11.2156 9.85114 11.2156 8.42052C11.2156 7.13969 10.5287 6.07112 9.10557 6.07112C7.43201 6.07112 6.08786 7.80242 6.08786 10.1214C6.08786 11.5986 6.58686 12.5977 6.58686 12.5977C6.58686 12.5977 4.87397 19.854 4.5744 21.1248C3.9761 23.6552 4.48459 26.7577 4.52754 27.071C4.55237 27.2567 4.79085 27.3008 4.89907 27.1608C5.05388 26.9591 7.04681 24.4987 7.72432 22.04C7.91595 21.3438 8.82441 17.7389 8.82441 17.7389C9.36832 18.7757 10.9574 19.6892 12.6474 19.6892C17.6775 19.6892 21.0908 15.1033 21.0908 8.96443C21.0911 4.32281 17.159 0 11.1839 0Z" fill="#605F6C"/>
</svg>

<svg width="22" height="28" viewBox="0 0 22 28" fill="none" xmlns="http://www.w3.org/2000/svg"><path d="M11.184 0C3.749 0 0 5.33 0 9.776c0 2.69 1.019 5.085 3.204 5.978.359.146.68.005.784-.392.072-.275.243-.967.32-1.256.104-.392.063-.53-.226-.872-.63-.743-1.032-1.705-1.032-3.069 0-3.954 2.958-7.494 7.705-7.494 4.201 0 6.51 2.568 6.51 5.997 0 4.512-1.997 8.32-4.96 8.32-1.638 0-2.863-1.354-2.47-3.015.47-1.982 1.38-4.122 1.38-5.552 0-1.281-.686-2.35-2.11-2.35-1.673 0-3.017 1.731-3.017 4.05 0 1.478.499 2.477.499 2.477l-2.013 8.527c-.598 2.53-.09 5.633-.046 5.946.024.186.263.23.371.09.155-.202 2.148-2.662 2.825-5.121.192-.696 1.1-4.301 1.1-4.301.544 1.037 2.133 1.95 3.823 1.95 5.03 0 8.444-4.586 8.444-10.725C21.09 4.323 17.159 0 11.184 0z" fill="#605F6C"/></svg>
